Newaita-dark/apps/scalable/karbon.svg

<?xml version="1.0" encoding="UTF-8"?>
<svg xmlns="http://www.w3.org/2000/svg" xmlns:xlink="http://www.w3.org/1999/xlink" width="512pt" height="512pt" viewBox="0 0 512 512" version="1.1">
<defs>
<radialGradient id="radial0" gradientUnits="userSpaceOnUse" cx="450.908936" cy="189.579361" fx="450.908936" fy="189.579361" r="21.166656" gradientTransform="matrix(0.00000278673,-1.250119,-2.250215,-0.00000162462,712.37043,1017.52527)">
<stop offset="0" style="stop-color:rgb(0%,0%,0%);stop-opacity:0.313725;"/>
<stop offset="0.222222" style="stop-color:rgb(0%,0%,0%);stop-opacity:0.27451;"/>
<stop offset="1" style="stop-color:rgb(0%,0%,0%);stop-opacity:0;"/>
</radialGradient>
<radialGradient id="radial1" gradientUnits="userSpaceOnUse" cx="450.908936" cy="189.579361" fx="450.908936" fy="189.579361" r="21.166656" gradientTransform="matrix(-0.00000278673,1.250119,2.250215,0.00000162462,-204.321898,-120.439713)">
<stop offset="0" style="stop-color:rgb(0%,0%,0%);stop-opacity:0.313725;"/>
<stop offset="0.222222" style="stop-color:rgb(0%,0%,0%);stop-opacity:0.27451;"/>
<stop offset="1" style="stop-color:rgb(0%,0%,0%);stop-opacity:0;"/>
</radialGradient>
<radialGradient id="radial2" gradientUnits="userSpaceOnUse" cx="450.908936" cy="189.579361" fx="450.908936" fy="189.579361" r="21.166656" gradientTransform="matrix(-0.00000278673,-1.250119,2.250215,-0.00000162462,-204.321898,1017.52527)">
<stop offset="0" style="stop-color:rgb(0%,0%,0%);stop-opacity:0.313725;"/>
<stop offset="0.222222" style="stop-color:rgb(0%,0%,0%);stop-opacity:0.27451;"/>
<stop offset="1" style="stop-color:rgb(0%,0%,0%);stop-opacity:0;"/>
</radialGradient>
<radialGradient id="radial3" gradientUnits="userSpaceOnUse" cx="450.908936" cy="189.579361" fx="450.908936" fy="189.579361" r="21.166656" gradientTransform="matrix(0.00000278673,1.250119,-2.250215,0.00000162462,712.3704,-120.43972)">
<stop offset="0" style="stop-color:rgb(0%,0%,0%);stop-opacity:0.313725;"/>
<stop offset="0.222222" style="stop-color:rgb(0%,0%,0%);stop-opacity:0.27451;"/>
<stop offset="1" style="stop-color:rgb(0%,0%,0%);stop-opacity:0;"/>
</radialGradient>
<linearGradient id="linear0" gradientUnits="userSpaceOnUse" x1="255.323059" y1="233.5" x2="255.323044" y2="254.666656" gradientTransform="matrix(0.213761,0,0,1.000095,199.446179,215.020539)">
<stop offset="0" style="stop-color:rgb(0%,0%,0%);stop-opacity:0.27451;"/>
<stop offset="1" style="stop-color:rgb(0%,0%,0%);stop-opacity:0;"/>
</linearGradient>
<linearGradient id="linear1" gradientUnits="userSpaceOnUse" x1="254" y1="-168.666672" x2="254" y2="233.5" >
<stop offset="0" style="stop-color:rgb(58.431373%,45.882353%,80.392157%);stop-opacity:1;"/>
<stop offset="1" style="stop-color:rgb(49.411765%,34.117647%,76.078431%);stop-opacity:1;"/>
</linearGradient>
<linearGradient id="linear2" gradientUnits="userSpaceOnUse" x1="412.75" y1="170" x2="412.75" y2="64.166664" >
<stop offset="0" style="stop-color:rgb(74.117647%,74.117647%,74.117647%);stop-opacity:1;"/>
<stop offset="1" style="stop-color:rgb(87.843137%,87.843137%,87.843137%);stop-opacity:1;"/>
</linearGradient>
<linearGradient id="linear3" gradientUnits="userSpaceOnUse" x1="105.833344" y1="-84" x2="105.833344" y2="-115.75" >
<stop offset="0" style="stop-color:rgb(74.117647%,74.117647%,74.117647%);stop-opacity:1;"/>
<stop offset="1" style="stop-color:rgb(87.843137%,87.843137%,87.843137%);stop-opacity:1;"/>
</linearGradient>
<linearGradient id="linear4" gradientUnits="userSpaceOnUse" x1="254" y1="0.666667" x2="254" y2="-41.666668" >
<stop offset="0" style="stop-color:rgb(74.117647%,74.117647%,74.117647%);stop-opacity:1;"/>
<stop offset="1" style="stop-color:rgb(87.843137%,87.843137%,87.843137%);stop-opacity:1;"/>
</linearGradient>
<linearGradient id="linear5" gradientUnits="userSpaceOnUse" x1="254" y1="106.5" x2="254" y2="43" >
<stop offset="0" style="stop-color:rgb(74.117647%,74.117647%,74.117647%);stop-opacity:1;"/>
<stop offset="1" style="stop-color:rgb(87.843137%,87.843137%,87.843137%);stop-opacity:1;"/>
</linearGradient>
</defs>
<g id="surface1">
<path style=" stroke:none;fill-rule:nonzero;fill:url(#radial0);" d="M 291.070312 448.542969 L 333.40625 448.542969 L 333.40625 427.375 L 291.070312 427.375 Z M 291.070312 448.542969 "/>
<path style=" stroke:none;fill-rule:nonzero;fill:url(#radial1);" d="M 216.980469 448.542969 L 174.640625 448.542969 L 174.640625 469.710938 L 216.980469 469.710938 Z M 216.980469 448.542969 "/>
<path style=" stroke:none;fill-rule:nonzero;fill:url(#radial2);" d="M 216.980469 448.542969 L 174.640625 448.542969 L 174.640625 427.375 L 216.980469 427.375 Z M 216.980469 448.542969 "/>
<path style=" stroke:none;fill-rule:nonzero;fill:url(#radial3);" d="M 291.070312 448.542969 L 333.40625 448.542969 L 333.40625 469.710938 L 291.070312 469.710938 Z M 291.070312 448.542969 "/>
<path style=" stroke:none;fill-rule:nonzero;fill:url(#linear0);" d="M 216.980469 443.25 L 291.070312 443.25 L 291.070312 469.710938 L 216.980469 469.710938 Z M 216.980469 443.25 "/>
<path style="fill-rule:nonzero;fill:url(#linear1);stroke-width:3;stroke-linecap:round;stroke-linejoin:miter;stroke:rgb(20%,20%,20%);stroke-opacity:1;stroke-miterlimit:4;" d="M 253.999182 -168.668487 C 365.054983 -168.668487 455.081542 -78.638022 455.081542 32.417779 C 455.081542 143.47358 365.054983 233.500139 253.999182 233.500139 C 142.943381 233.500139 52.916822 143.47358 52.916822 32.417779 C 52.916822 -78.638022 142.943381 -168.668487 253.999182 -168.668487 Z M 253.999182 -168.668487 " transform="matrix(1.000095,0,0,1.000095,0,215.020531)"/>
<path style=" stroke:none;fill-rule:nonzero;fill:rgb(0%,0%,0%);fill-opacity:0.196078;" d="M 254.023438 448.542969 C 142.613281 448.542969 52.921875 358.851562 52.921875 247.441406 C 52.921875 246.78125 52.929688 246.125 52.933594 245.472656 C 53.984375 355.964844 143.269531 444.605469 254.023438 444.605469 C 364.777344 444.605469 454.0625 355.964844 455.113281 245.472656 C 455.121094 246.125 455.125 246.78125 455.125 247.441406 C 455.125 358.851562 365.433594 448.542969 254.023438 448.542969 Z M 254.023438 448.542969 "/>
<path style=" stroke:none;fill-rule:nonzero;fill:rgb(100%,100%,100%);fill-opacity:0.392157;" d="M 254.023438 46.335938 C 142.613281 46.335938 52.921875 136.027344 52.921875 247.441406 C 52.921875 248.097656 52.929688 248.753906 52.933594 249.410156 C 53.984375 138.914062 143.269531 50.277344 254.023438 50.277344 C 364.777344 50.277344 454.0625 138.914062 455.113281 249.410156 C 455.121094 248.753906 455.125 248.097656 455.125 247.441406 C 455.125 136.027344 365.433594 46.335938 254.023438 46.335938 Z M 254.023438 46.335938 "/>
<path style=" stroke:none;fill-rule:nonzero;fill:rgb(12.941177%,12.941177%,12.941177%);fill-opacity:1;" d="M 254.023438 44.839844 C 141.808594 44.839844 51.421875 135.222656 51.421875 247.441406 C 51.421875 359.65625 141.808594 450.042969 254.023438 450.042969 C 366.238281 450.042969 456.628906 359.65625 456.628906 247.441406 C 456.628906 135.222656 366.238281 44.839844 254.023438 44.839844 Z M 254.023438 47.839844 C 364.628906 47.839844 453.628906 136.832031 453.628906 247.441406 C 453.628906 358.046875 364.628906 447.042969 254.023438 447.042969 C 143.417969 447.042969 54.421875 358.046875 54.421875 247.441406 C 54.421875 136.832031 143.417969 47.839844 254.023438 47.839844 Z M 254.023438 47.839844 "/>
<path style="fill-rule:evenodd;fill:rgb(25.882354%,25.882354%,25.882354%);fill-opacity:1;stroke-width:3;stroke-linecap:butt;stroke-linejoin:miter;stroke:rgb(12.941177%,12.941177%,12.941177%);stroke-opacity:1;stroke-miterlimit:4;" d="M 112.286152 -109.80692 L 109.962155 -89.94163 C 142.279382 -86.164647 177.983003 -82.250958 203.921933 -72.16989 C 216.89335 -67.127402 227.224395 -60.651458 233.989374 -52.570199 C 240.754353 -44.485033 244.48056 -34.833611 244.004043 -20.838854 L 243.957172 -19.436644 L 244.296983 -18.073493 C 249.140271 1.284033 247.320132 16.32166 245.011759 31.160087 C 242.703385 45.994608 239.477131 61.055669 244.418065 77.608776 L 244.519618 77.952493 L 244.644606 78.284493 C 265.005943 132.205125 301.736811 150.496347 335.733564 150.269806 C 369.730318 150.043265 400.969522 134.017452 417.163288 126.057274 L 408.336006 108.10977 C 392.017252 116.136347 363.191879 130.088139 335.600764 130.26781 C 308.095578 130.451386 281.797308 119.628201 263.541239 71.679655 C 260.369667 60.817411 262.400723 49.470838 264.771591 34.234012 C 267.115117 19.200291 269.306314 0.760646 263.982603 -21.604406 C 264.259921 -39.141794 258.815128 -54.062244 249.327753 -65.401005 C 239.574778 -77.056142 226.134655 -84.988978 211.167335 -90.808735 C 181.232693 -102.444342 144.408085 -106.049467 112.286152 -109.80692 Z M 112.286152 -109.80692 " transform="matrix(1.000095,0,0,1.000095,0,215.020531)"/>
<path style="fill-rule:nonzero;fill:url(#linear2);stroke-width:3;stroke-linecap:butt;stroke-linejoin:round;stroke:rgb(12.941177%,12.941177%,12.941177%);stroke-opacity:1;stroke-miterlimit:4;" d="M 412.749647 64.164747 C 441.973419 64.164747 465.666469 87.857797 465.666469 117.081569 C 465.666469 146.309247 441.973419 169.998391 412.749647 169.998391 C 383.525875 169.998391 359.832825 146.309247 359.832825 117.081569 C 359.832825 87.857797 383.525875 64.164747 412.749647 64.164747 Z M 412.749647 64.164747 " transform="matrix(1.000095,0,0,1.000095,0,215.020531)"/>
<path style="fill-rule:nonzero;fill:url(#linear3);stroke-width:3;stroke-linecap:butt;stroke-linejoin:round;stroke:rgb(12.941177%,12.941177%,12.941177%);stroke-opacity:1;stroke-miterlimit:4;" d="M 111.126107 -115.751665 C 119.890895 -115.751665 126.999591 -108.642969 126.999591 -99.874275 C 126.999591 -91.105581 119.890895 -84.000791 111.126107 -84.000791 C 102.357413 -84.000791 95.248717 -91.105581 95.248717 -99.874275 C 95.248717 -108.642969 102.357413 -115.751665 111.126107 -115.751665 Z M 111.126107 -115.751665 " transform="matrix(1.000095,0,0,1.000095,0,215.020531)"/>
<path style="fill-rule:nonzero;fill:url(#linear4);stroke-width:3;stroke-linecap:butt;stroke-linejoin:round;stroke:rgb(12.941177%,12.941177%,12.941177%);stroke-opacity:1;stroke-miterlimit:4;" d="M 253.999182 -41.66499 C 265.689472 -41.66499 275.165129 -32.189333 275.165129 -20.499043 C 275.165129 -8.808753 265.689472 0.666905 253.999182 0.666905 C 242.308892 0.666905 232.833234 -8.808753 232.833234 -20.499043 C 232.833234 -32.189333 242.308892 -41.66499 253.999182 -41.66499 Z M 253.999182 -41.66499 " transform="matrix(1.000095,0,0,1.000095,0,215.020531)"/>
<path style="fill-rule:nonzero;fill:url(#linear5);stroke-width:3;stroke-linecap:butt;stroke-linejoin:round;stroke:rgb(12.941177%,12.941177%,12.941177%);stroke-opacity:1;stroke-miterlimit:4;" d="M 253.999182 42.9988 C 271.53657 42.9988 285.750056 57.216192 285.750056 74.749674 C 285.750056 92.283156 271.53657 106.500548 253.999182 106.500548 C 236.4657 106.500548 222.248308 92.283156 222.248308 74.749674 C 222.248308 57.216192 236.4657 42.9988 253.999182 42.9988 Z M 253.999182 42.9988 " transform="matrix(1.000095,0,0,1.000095,0,215.020531)"/>
</g>
</svg>

<svg xmlns="http://www.w3.org/2000/svg" width="512pt" height="512pt" viewBox="0 0 512 512"><defs><radialGradient id="a" gradientUnits="userSpaceOnUse" cx="450.909" cy="189.579" fx="450.909" fy="189.579" r="21.167" gradientTransform="matrix(0 -1.25012 -2.25021 0 712.37 1017.525)"><stop offset="0" stop-opacity=".314"/><stop offset=".222" stop-opacity=".275"/><stop offset="1" stop-opacity="0"/></radialGradient><radialGradient id="b" gradientUnits="userSpaceOnUse" cx="450.909" cy="189.579" fx="450.909" fy="189.579" r="21.167" gradientTransform="matrix(0 1.25012 2.25021 0 -204.322 -120.44)"><stop offset="0" stop-opacity=".314"/><stop offset=".222" stop-opacity=".275"/><stop offset="1" stop-opacity="0"/></radialGradient><radialGradient id="c" gradientUnits="userSpaceOnUse" cx="450.909" cy="189.579" fx="450.909" fy="189.579" r="21.167" gradientTransform="matrix(0 -1.25012 2.25021 0 -204.322 1017.525)"><stop offset="0" stop-opacity=".314"/><stop offset=".222" stop-opacity=".275"/><stop offset="1" stop-opacity="0"/></radialGradient><radialGradient id="d" gradientUnits="userSpaceOnUse" cx="450.909" cy="189.579" fx="450.909" fy="189.579" r="21.167" gradientTransform="matrix(0 1.25012 -2.25021 0 712.37 -120.44)"><stop offset="0" stop-opacity=".314"/><stop offset=".222" stop-opacity=".275"/><stop offset="1" stop-opacity="0"/></radialGradient><linearGradient id="e" gradientUnits="userSpaceOnUse" x1="255.323" y1="233.5" x2="255.323" y2="254.667" gradientTransform="matrix(.21376 0 0 1.0001 199.446 215.02)"><stop offset="0" stop-opacity=".275"/><stop offset="1" stop-opacity="0"/></linearGradient><linearGradient id="f" gradientUnits="userSpaceOnUse" x1="254" y1="-168.667" x2="254" y2="233.5"><stop offset="0" stop-color="#9575cd"/><stop offset="1" stop-color="#7e57c2"/></linearGradient><linearGradient id="g" gradientUnits="userSpaceOnUse" x1="412.75" y1="170" x2="412.75" y2="64.167"><stop offset="0" stop-color="#bdbdbd"/><stop offset="1" stop-color="#e0e0e0"/></linearGradient><linearGradient id="h" gradientUnits="userSpaceOnUse" x1="105.833" y1="-84" x2="105.833" y2="-115.75"><stop offset="0" stop-color="#bdbdbd"/><stop offset="1" stop-color="#e0e0e0"/></linearGradient><linearGradient id="i" gradientUnits="userSpaceOnUse" x1="254" y1=".667" x2="254" y2="-41.667"><stop offset="0" stop-color="#bdbdbd"/><stop offset="1" stop-color="#e0e0e0"/></linearGradient><linearGradient id="j" gradientUnits="userSpaceOnUse" x1="254" y1="106.5" x2="254" y2="43"><stop offset="0" stop-color="#bdbdbd"/><stop offset="1" stop-color="#e0e0e0"/></linearGradient></defs><path d="M291.07 448.543h42.336v-21.168H291.07zm0 0" fill="url(#a)"/><path d="M216.98 448.543h-42.34v21.168h42.34zm0 0" fill="url(#b)"/><path d="M216.98 448.543h-42.34v-21.168h42.34zm0 0" fill="url(#c)"/><path d="M291.07 448.543h42.336v21.168H291.07zm0 0" fill="url(#d)"/><path d="M216.98 443.25h74.09v26.46h-74.09zm0 0" fill="url(#e)"/><path d="M254-168.668c111.055 0 201.082 90.03 201.082 201.086 0 111.056-90.027 201.082-201.083 201.082S52.917 143.474 52.917 32.418s90.026-201.086 201.082-201.086zm0 0" transform="matrix(1.0001 0 0 1.0001 0 215.02)" fill="url(#f)" stroke-width="3" stroke-linecap="round" stroke="#333"/><path d="M254.023 448.543c-111.41 0-201.101-89.691-201.101-201.102 0-.66.008-1.316.012-1.968 1.05 110.492 90.336 199.132 201.09 199.132 110.753 0 200.038-88.64 201.09-199.132.007.652.011 1.308.011 1.968 0 111.41-89.691 201.102-201.102 201.102zm0 0" fill-opacity=".196"/><path d="M254.023 46.336c-111.41 0-201.101 89.691-201.101 201.105 0 .657.008 1.313.012 1.97 1.05-110.497 90.336-199.134 201.09-199.134 110.753 0 200.038 88.637 201.09 199.133.007-.656.011-1.312.011-1.969 0-111.414-89.691-201.105-201.102-201.105zm0 0" fill="#fff" fill-opacity=".392"/><path d="M254.023 44.84c-112.214 0-202.601 90.383-202.601 202.601 0 112.215 90.387 202.602 202.601 202.602 112.215 0 202.606-90.387 202.606-202.602 0-112.218-90.39-202.601-202.606-202.601zm0 3c110.606 0 199.606 88.992 199.606 199.601 0 110.606-89 199.602-199.606 199.602-110.605 0-199.601-88.996-199.601-199.602 0-110.609 88.996-199.601 199.601-199.601zm0 0" fill="#212121"/><path d="M112.297 105.203l-2.324 19.867c32.32 3.778 68.027 7.692 93.968 17.774 12.973 5.043 23.305 11.52 30.07 19.601 6.766 8.086 10.493 17.739 10.016 31.735l-.047 1.402.34 1.363c4.844 19.36 3.024 34.399.715 49.239-2.309 14.836-5.535 29.898-.594 46.453l.102.343.125.332c20.363 53.926 57.097 72.22 91.097 71.993 34-.227 65.243-16.254 81.438-24.215l-8.828-17.95c-16.32 8.028-45.149 21.981-72.742 22.16-27.508.184-53.809-10.64-72.067-58.593-3.172-10.863-1.14-22.21 1.23-37.45 2.344-15.034 4.536-33.476-.788-55.843.277-17.539-5.168-32.46-14.657-43.8-9.753-11.657-23.195-19.59-38.164-25.41-29.937-11.638-66.765-15.243-98.89-19zm0 0" fill-rule="evenodd" fill="#424242" stroke-width="3.0002699999999995" stroke="#212121"/><path d="M412.75 64.165c29.223 0 52.916 23.693 52.916 52.917 0 29.227-23.693 52.916-52.916 52.916-29.224 0-52.917-23.689-52.917-52.916 0-29.224 23.693-52.917 52.917-52.917zm0 0" transform="matrix(1.0001 0 0 1.0001 0 215.02)" fill="url(#g)" stroke-width="3" stroke-linejoin="round" stroke="#212121"/><path d="M111.126-115.752c8.765 0 15.874 7.109 15.874 15.878 0 8.768-7.11 15.873-15.874 15.873-8.769 0-15.877-7.105-15.877-15.873 0-8.769 7.108-15.878 15.877-15.878zm0 0" transform="matrix(1.0001 0 0 1.0001 0 215.02)" fill="url(#h)" stroke-width="3" stroke-linejoin="round" stroke="#212121"/><path d="M254-41.665c11.69 0 21.165 9.476 21.165 21.166S265.69.667 254 .667 232.833-8.81 232.833-20.5 242.31-41.665 254-41.665zm0 0" transform="matrix(1.0001 0 0 1.0001 0 215.02)" fill="url(#i)" stroke-width="3" stroke-linejoin="round" stroke="#212121"/><path d="M254 42.999c17.537 0 31.75 14.217 31.75 31.75 0 17.534-14.213 31.752-31.75 31.752-17.534 0-31.752-14.218-31.752-31.751 0-17.534 14.218-31.751 31.751-31.751zm0 0" transform="matrix(1.0001 0 0 1.0001 0 215.02)" fill="url(#j)" stroke-width="3" stroke-linejoin="round" stroke="#212121"/></svg>
